packages/icons/raw/imported/FilesPrint.svg

<svg width="32" height="32" viewBox="0 0 32 32" fill="none" xmlns="http://www.w3.org/2000/svg">
<path d="M22.9423 21.8462H23.5C24.6046 21.8462 25.5 20.9508 25.5 19.8462V14.3462C25.5 13.2416 24.6046 12.3462 23.5 12.3462H8.5C7.39543 12.3462 6.5 13.2416 6.5 14.3462V19.8462C6.5 20.9508 7.39543 21.8462 8.5 21.8462H9.05769M8.69232 12.3462V8.5C8.69232 7.39543 9.58775 6.5 10.6923 6.5H21.3077C22.4123 6.5 23.3077 7.39543 23.3077 8.5V12.3462M22.5769 20.1923V23.5C22.5769 24.6045 21.6815 25.5 20.5769 25.5H11.4231C10.3185 25.5 9.4231 24.6045 9.4231 23.5V20.1923C9.4231 19.0877 10.3185 18.1923 11.4231 18.1923H20.5769C21.6815 18.1923 22.5769 19.0877 22.5769 20.1923Z" stroke="black"/>
</svg>

<svg width="32" height="32" fill="none" xmlns="http://www.w3.org/2000/svg"><path d="M22.942 21.846h.558a2 2 0 0 0 2-2v-5.5a2 2 0 0 0-2-2h-15a2 2 0 0 0-2 2v5.5a2 2 0 0 0 2 2h.558m-.366-9.5V8.5a2 2 0 0 1 2-2h10.616a2 2 0 0 1 2 2v3.846m-.731 7.846V23.5a2 2 0 0 1-2 2h-9.154a2 2 0 0 1-2-2v-3.308a2 2 0 0 1 2-2h9.154a2 2 0 0 1 2 2Z" stroke="#000"/></svg>
